X:73
T:Kissing and Drinking. LIT.073
M:9/8
Q:3/8=115
L:1/8
B:Wm. Litten MS, 1802
Z:Village Music Project 2017 Anne Wride
K:D
ABA dfd cec | ABA dfd fga | ABA dfd cec | BdB geg dBG ||
a3 faf g2e | a3 fga ecA | aba faf gfe | BdB gfg dBG |]

